svg/nature/flower_4_line.svg

<?xml version="1.0" encoding="UTF-8"?>
<svg width="24px" height="24px" viewBox="0 0 24 24" version="1.1" xmlns="http://www.w3.org/2000/svg" xmlns:xlink="http://www.w3.org/1999/xlink">
    <title>flower_4_line</title>
    <g id="Icon" stroke="none" stroke-width="1" fill="none" fill-rule="evenodd">
        <g id="Nature" transform="translate(-240.000000, -98.000000)">
            <g id="flower_4_line" transform="translate(240.000000, 98.000000)">
                <path d="M24,0 L24,24 L0,24 L0,0 L24,0 Z M12.5935,23.2578 L12.5819,23.2595 L12.5109,23.295 L12.4919,23.2987 L12.4767,23.295 L12.4057,23.2595 C12.3958,23.2564 12.387,23.259 12.3821,23.2649 L12.378,23.2758 L12.3609,23.7031 L12.3659,23.7235 L12.3769,23.7357 L12.4805,23.8097 L12.4953,23.8136 L12.5071,23.8097 L12.6107,23.7357 L12.6233,23.7197 L12.6267,23.7031 L12.6096,23.2758 C12.6076,23.2657 12.601,23.2593 12.5935,23.2578 Z M12.8584,23.1453 L12.8445,23.1473 L12.6598,23.2397 L12.6499,23.2499 L12.6472,23.2611 L12.6651,23.6906 L12.6699,23.7034 L12.6784,23.7105 L12.8793,23.8032 C12.8914,23.8069 12.9022,23.803 12.9078,23.7952 L12.9118,23.7812 L12.8777,23.1665 C12.8753,23.1546 12.8674,23.147 12.8584,23.1453 Z M12.143,23.1473 C12.1332,23.1424 12.1222,23.1453 12.1156,23.1526 L12.1099,23.1665 L12.0758,23.7812 C12.0751,23.7927 12.0828,23.8019 12.0926,23.8046 L12.1083,23.8032 L12.3092,23.7105 L12.3186,23.7024 L12.3225,23.6906 L12.3404,23.2611 L12.3372,23.2485 L12.3278,23.2397 L12.143,23.1473 Z" id="MingCute" fill-rule="nonzero"></path>
                <path d="M12,2 C12.8307,2 13.5658,2.57733 14.1052,3.1559 C14.5099,3.59003 14.8965,4.13733 15.2137,4.76666 C16.3366,4.17787 17.4321,4.01385 18.1589,3.97992 C19.2333762,3.92974857 19.931163,4.78770413 19.9951825,5.66633175 L20,5.79817 L20,8.00009 C20,11.9928998 17.0748623,15.3025261 13.2506585,15.9029066 L13,15.9382 L13,19.0083 C14.0764,18.3393 15.662,17.5537 17.7575,17.0299 C18.2933,16.8959 18.8362,17.2217 18.9701,17.7575 C19.1041,18.2933 18.7783,18.8362 18.2425,18.9701 C16.5780172,19.3862207 15.2883294,19.9843212 14.3737408,20.5158119 L14.0279114,20.7242664 C13.9736077,20.7582203 13.9209712,20.7917309 13.8700021,20.8247245 L13.5841967,21.0158924 L13.5841967,21.0158924 L13.3384127,21.1911165 L13.3384127,21.1911165 L13.1326545,21.3468614 L13.1326545,21.3468614 L12.9669263,21.4795915 L12.9669263,21.4795915 L12.7934,21.6278 C12.5598,21.8358 12.3293,22 12,22 C11.7210857,22 11.5118204,21.8823755 11.3121901,21.7187277 L11.0428375,21.4876424 L11.0428375,21.4876424 L10.8788885,21.3558793 L10.8788885,21.3558793 L10.6744858,21.2006328 L10.6744858,21.2006328 L10.429634,21.0254942 C10.3854549,20.9948462 10.3395906,20.963519 10.2920412,20.9315875 L9.98652479,20.7333441 C9.93223549,20.6992942 9.8762613,20.6647896 9.81860233,20.6299051 L9.45243188,20.416637 C8.55086385,19.9111663 7.31911655,19.3605552 5.75746,18.9701 C5.22167,18.8362 4.89591,18.2933 5.02986,17.7575 C5.16381,17.2217 5.70674,16.8959 6.24254,17.0299 C8.19827467,17.51878 9.70995173,18.2357169 10.7779371,18.8730575 L11,19.0083 L11,15.9382 C7.13765404,15.4565702 4.13034834,12.2216499 4.00412634,8.25950123 L4,8.00009 L4,5.78407 C4,4.87486 4.69196,3.93414 5.80673,3.96448 C6.54082,3.98447 7.66072,4.13173 8.80633,4.72736 C9.1197,4.11454 9.49862,3.58097 9.89487,3.1559 C10.4342,2.57733 11.1694,2 12,2 Z M6,5.9765 L6,8.00009 C6,10.973 8.1622,13.441 10.9998,13.9171 C10.9849,10.136 9.94705,8.21244 8.88876,7.21664 C7.98016,6.361688 6.93354987,6.07396871 6.16116377,5.99122535 L6,5.9765 Z M18,5.99564 C17.212,6.07061 16.0783,6.35677 15.1041,7.2828 C14.0448,8.28965 13.0153,10.2051 13.0002,13.9171 C15.7589778,13.4541278 17.8793566,11.1085687 17.9950268,8.24663163 L18,8.00009 L18,5.99564 Z M12,4.01111 C11.7504,4.11525 11.5385,4.32588 11.3578,4.51967 C11.0301,4.87122 10.6977,5.3596 10.4437,5.94039 C11.052,6.55841 11.5892,7.3418 12.0121,8.32625 C12.4359,7.36268 12.9708,6.5926 13.5744,5.98208 C13.3182,5.38296 12.9778,4.8796 12.6423,4.51967 C12.4616,4.32587 12.2497,4.11526 12,4.01111 Z" id="形状" fill="#09244B"></path>
            </g>
        </g>
    </g>
</svg>

<svg xmlns="http://www.w3.org/2000/svg" width="24" height="24"><g fill="none" fill-rule="evenodd"><path d="M24 0v24H0V0h24ZM12.594 23.258l-.012.002-.071.035-.02.004-.014-.004-.071-.036c-.01-.003-.019 0-.024.006l-.004.01-.017.428.005.02.01.013.104.074.015.004.012-.004.104-.074.012-.016.004-.017-.017-.427c-.002-.01-.009-.017-.016-.018Zm.264-.113-.014.002-.184.093-.01.01-.003.011.018.43.005.012.008.008.201.092c.012.004.023 0 .029-.008l.004-.014-.034-.614c-.003-.012-.01-.02-.02-.022Zm-.715.002a.023.023 0 0 0-.027.006l-.006.014-.034.614c0 .012.007.02.017.024l.015-.002.201-.093.01-.008.003-.011.018-.43-.003-.012-.01-.01-.184-.092Z"/><path fill="#09244B" d="M12 2c.83 0 1.566.577 2.105 1.156.405.434.791.981 1.109 1.61a7.105 7.105 0 0 1 2.945-.786c1.074-.05 1.772.808 1.836 1.686l.005.132V8a8.002 8.002 0 0 1-6.75 7.903l-.25.035v3.07c1.076-.669 2.662-1.454 4.758-1.978a1 1 0 1 1 .485 1.94 14.88 14.88 0 0 0-3.87 1.546l-.345.208-.158.1-.286.192-.246.175-.205.156-.166.133-.174.148c-.233.208-.464.372-.793.372-.279 0-.488-.118-.688-.281l-.27-.231-.163-.132-.205-.155-.244-.176-.138-.093-.305-.199-.168-.103-.367-.213a14.983 14.983 0 0 0-3.695-1.447 1 1 0 1 1 .486-1.94c1.955.489 3.467 1.206 4.535 1.843l.222.135v-3.07A8.002 8.002 0 0 1 4.004 8.26L4 8V5.784c0-.91.692-1.85 1.807-1.82.734.02 1.854.168 3 .763a6.98 6.98 0 0 1 1.088-1.571C10.435 2.577 11.169 2 12 2ZM6 5.976V8a6.002 6.002 0 0 0 5 5.917c-.015-3.781-1.053-5.705-2.111-6.7C7.98 6.362 6.934 6.074 6.16 5.99L6 5.977Zm12 .02c-.788.075-1.922.36-2.896 1.287-1.06 1.007-2.089 2.922-2.104 6.634a6.002 6.002 0 0 0 4.995-5.67L18 8V5.996ZM12 4.01c-.25.104-.461.315-.642.509-.328.351-.66.84-.914 1.42.608.618 1.145 1.402 1.568 2.386.424-.963.959-1.733 1.562-2.344a5.142 5.142 0 0 0-.932-1.462c-.18-.194-.392-.405-.642-.509Z"/></g></svg>
